!!!!SEGMENT: pl-wtm--r-1700-1_stefani-jozef--mazur-grany-na-balu-w-zamku.krn
!!!cenid: 18xx:2319
!!!COM: Stefani, Józef
!!!COM-rismID:
!!!CDT: 1800/04/16-1876/03/19
!!!CNT: Polish
!!!OTL: Mazur grany na balu w zamku
!!!PDT:
!!!AGN: Secular; Mazurka
!!!SMS-siglum: PL-Wtm
!!!SMS-shelfmark: R 1700/1
!!!SMS-shelfwork: W
!!!SMS-variant:
!!!SMS-altvar:
!!!NIFC-rismSourceID: 1001137571
!!!NIFC-islandoraID:
!!!URL-pdf-islandora:
!!!URL-scan:
!!!ONB-nifc: UWAGA: z folderu pl-wtm-nut—r1700-1
!!!AIN: 2 cello
!!!key:
**kern	**kern	**dynam
*part2	*part1	*part1
*staff2	*staff1	*
*Icello	*Icello	*
*I"Violon Repetiteur	*I"Violon Repetiteur	*
*clefG2	*clefG2	*
*k[f#c#]	*k[f#c#]	*
*D:	*D:	*
*M3/8	*M3/8	*
*[A,A,B,B,C,C1,C,C2,D,D,E,E1,E,E2,F,F,G,G,H,H1,H,H2,I,I,J,J1,J,J2,K,K,L,L,M,M,N,N1,N,N2,O,O,P,P,R,R1,R,R2,S,S,T,T1,T,T2,U,U,W,W1,W,W2,X,X,Y,Y1,Y,Y2,Z,Z,Ź,Ź1,Ź,Ź2,Ż,Ż1,Ż,Ż2,Q,Q,Ś]	*	*
=1	=1	=1
*>A	*	*
!	!LO:TUP:a:b:problem:problem=klamra łukowa&colon;global&colon;w całym utworze wyświetlanie trioli odwrotnie niż powinno być	!
.	(16qqaa/LL	f
.	32qqbb/L	.
.	32qqccc#/JJJ)	.
16dd/ 16f#/ 16A/	16ddd\	.
16r	16r	.
16f#/ 16A/	16aa\ 16dd'\	.
16r	16r	.
!LO:N:vis=16	!	!
8g/ 8G/	(8bb\ 8dd\	.
=2	=2	=2
16.d/LL	16.aa\LL)	.
32e/K	32gg'\K	.
16.f#/	16.ff#'\	.
32g/JK	32ee'\JK	.
8g#X/J	8dd'^<\J	.
=3	=3	=3
!	!LO:TUP:a:problem=klamra łukowa	!
8a/L	24cc#\LL	.
.	24dd\	.
.	24ee\JJ	.
8gn/ 8A/	8a\L	.
8g/J 8A/	16b\L	.
.	16cc#\JJ	.
=4	=4	=4
8f#/L 8A/	16.dd\LL	.
.	32ff#\K	.
8f#/ 8A/	16.aa\	.
.	32bb\JK	.
8f#/J 8A/	8aa\J	.
!!LO:LB:g=original
=5	=5	=5
.	(16qqaa/LL	.
.	32qqbb/L	.
.	32qqccc#/JJJ)	.
16dd/ 16f#/ 16A/	16ddd\	.
16r	16r	.
16f#/ 16A/	16aa\ 16dd\	.
16r	16r	.
8g/ 8G/	(8bb\ 8dd\	.
=6	=6	=6
16.d/LL	16.aa\LL)	.
32e/K	32gg\K	.
16.f#/	16.ff#\	.
32g/JK	32ee\JK	.
8g#X/J	8dd^<\J	.
=7	=7	=7
!	!LO:TUP:a:problem=klamra łukowa	!
8a/L	24cc#\LL	.
.	24dd\	.
.	24ee\JJ	.
8gn/ 8A/	8a/L	.
8g/J 8A/	(16b/L	.
.	16cc#/JJ)	.
=8	=8	=8
16f#/ 16A/	(32ee\KLL	.
.	16dd\JJ)	.
16r	.	.
.	32r	.
4f#/ 4A/	4dd/ 4f#/	.
=9:|!|:	=9:|!|:	=9:|!|:
*>B	*	*
16.f#/LL 16.A#X/	16.ff#\LL 16.cc#\ 16.f#\	.
32f#/JJk 32A#/	32ff#\JJk 32cc#\	.
8f#/L 8A#/	8ff#\L 8cc#\	.
8A#/J	8ee\J	.
!!LO:LB:g=original
=10	=10	=10
*Xtuplet	*	*
24B/LL	24dd\LL	.
24A#X/	24ee\	.
24B/JJ	24dd\JJ	.
24c#/LL	24cc#\LL	.
24B/	24dd\	.
24c#/JJ	24cc#\JJ	.
8d/	8b\	.
=11	=11	=11
16.e/LL	16.ee/LL 16.b/ 16.e/	.
32e/JJk	32ee/JJk 32b/	.
8e/L	8ee/L 8b/	.
8G#X/J	8dd/J 8e/	.
=12	=12	=12
*	*Xtuplet	*
24A/LL	24cc#/LL 24e/	.
24G#X/	24dd/	.
24A/JJ	24cc#/JJ	.
24B/LL	24b/LL	.
24A/	24cc#/	.
24B/JJ	24b/JJ	.
8c#/	8a/	.
=13	=13	=13
.	(16qqaa/LL	.
.	32qqbb/L	.
.	32qqccc#/JJJ)	.
16f#/ 16A/	16ddd\	.
16r	16r	.
16f#/ 16A/	16aa\ 16dd\	.
16r	16r	.
8g/ 8G/	(8bb\ 8dd\	.
=14	=14	=14
16.d/LL	16.aa\LL)	.
32e/K	32gg\K	.
16.f#/	16.ff#\	.
32g/JK	32ee\JK	.
8g#X/J	8dd^<\J	.
!!LO:LB:g=original
=15	=15	=15
8a/L	24cc#\LL	.
.	24dd\	.
.	24ee\JJ	.
8gn/ 8A/	8a/L	.
8g/J 8A/	16b/L	.
.	16cc#/JJ	.
=16	=16	=16
16f#/ 16A/	(32ee\KLL	.
.	16dd\JJ)	.
16r	.	.
.	32r	.
4f#/ 4A/	4dd/ 4f#/ 4A/	.
=17:|!|:	=17:|!|:	=17:|!|:
*>C	*	*
!	!LO:TX:b:t=dolce	!
(8.b/L 8.d/ 8.G/	(8.dd/L 8.g/ 8.G/	.
16a#X/Jk)	16cc#X/Jk)	.
(16b/LL	(16dd\LL	.
16a#/JJ)	16cc#\JJ)	.
=18	=18	=18
16ccn\	16ee\	.
16r	16r	.
4b/	4dd/ 4g^/	.
=19	=19	=19
24ee\LL 24ccn\ 24g\	24gg\LL 24ccn\ 24e\	.
24ff#\	24aa\	.
24ee\JJ	24gg\JJ	.
8dd\L	8ff#\L	.
8cc\J	8ee\J	.
!!LO:LB:g=original
=20	=20	=20
16ccn\	16ee\	.
16r	16r	.
4b\	4dd^<\	.
=21	=21	=21
*tremolo	*	*
8ccn/L 8d/	16.ccn/LL	.
.	32d/K	.
8cc/ 8d/	16.a/	.
.	32ee/JJk	.
8cc/J 8d/	8dd\	.
=22	=22	=22
8b/L 8d/	16.b/LL	.
.	32d/K	.
8b/ 8d/	16.g/	.
.	32ee/JJk	.
8b/J 8d/	8dd\	.
=23	=23	=23
!LO:TX:t=1ma	!	!
*>C1	*	*
8a/L 8g/	24a/LL	.
.	24b/	.
.	24a/JJ	.
8a/ 8g/	(16g#X/LL	.
.	16a/)	.
8a/J 8g/	(16ff#/	.
.	16ee/JJ)	.
*Xtremolo	*	*
=24	=24	=24
16a/ 16f#/	16dd\	.
16r	16r	.
4a/ 4f#/	4dd/ 4f#/ 4A/	.
!!LO:PB:g=original
=25:|!	=25:|!	=25:|!
!LO:TX:t=2da	!	!
*>C2	*	*
8a/L 8cn/	24aa\LL	.
.	24bb\	.
.	24aa\JJ	.
8a/J 8c/	16.ee\LL	.
.	32aa\K	.
8a/ 8c/	16.ff#\	.
.	32dd\JJk	.
=26	=26	=26
16g/ 16B/	(32aa\KLL	.
.	16gg\JJ)	.
16r	.	.
.	32r	.
8g/ 8B/	8gg\L 8b\ 8d\	.
8r	(16aa\L	.
.	32bb\L	.
.	32ccc#X\JJJ)	.
=27:|!|:	=27:|!|:	=27:|!|:
*>D	*	*
16dd/ 16f#/ 16A/	16ddd\	f
16r	16r	.
16f#/ 16A/	16aa\ 16dd\|	.
16r	16r	.
8g/ 8G/	(8bb\ 8dd^<\	.
=28	=28	=28
16.d/LL	16.aa\LL)	.
32e/K	32gg\K|	.
16.f#/	16.ff#\|	.
32g/JK	32ee\JK|	.
8g#X/J	8dd^<\J|	.
!!LO:LB:g=original
=29	=29	=29
*	*tuplet	*
!	!LO:TUP:a:problem=klamra łukowa	!
8a/L	24cc#\LL	.
.	24dd\	.
.	24ee\JJ	.
8gn/ 8A/	(8a/L	.
8g/J 8A/	16b/L	.
.	16cc#/JJ)	.
=30	=30	=30
*tremolo	*	*
8f#/L 8A/	16.dd\LL	.
.	32ff#\K	.
8f#/ 8A/	16.aa\	.
.	32bb\JK	.
8f#/J 8A/	8aa\J	.
*Xtremolo	*	*
=31	=31	=31
16dd/ 16f#/ 16A/	16ddd\ 16dd\	.
16r	16r	.
16f#/ 16A/	16aa\ 16dd\	.
16r	16r	.
8g/ 8A/	8bb\ 8dd^<\	.
=32	=32	=32
16.d/LL	16.aa\LL	.
32e/K	32gg\K	.
16.f#/	16.ff#\	.
32g/JK	32ee\JK	.
8g#X/J	8dd^<\J	.
=33	=33	=33
!	!LO:TUP:a:problem=klamra łukowa	!
8a/L	24cc#\LL	.
.	24dd\	.
.	24ee\JJ	.
8gn/ 8A/	8a/L	.
8g/J 8A/	16b/L	.
.	16cc#/JJ	.
!!LO:LB:g=original
=34	=34	=34
16f#/ 16A/	(32ee\KLL	.
.	16dd\JJ)	.
16r	.	.
.	32r	.
4f#/ 4A/	4dd/ 4f#/ 4A/	.
=35:|!|:	=35:|!|:	=35:|!|:
*>E	*	*
*	*^	*
*tuplet	*	*	*
24d/LL	24ff#\LL	24ryy	p
24e/	24gg\	24ryy	.
24d/JJ	24ff#\JJ	24ryy	.
8B/L	8dd\L	8ryy	.
8d/J	8bb\J	8b\ 8d\	.
*	*v	*v	*
=36	=36	=36
24e/LL	24gg\LL	.
24f#/	24aa\	.
24e/JJ	24gg\JJ	.
4d/	4ff#\ 4b\	.
=37	=37	=37
24e/LL	24gg\LL	.
24f#/	24aa\	.
24e/JJ	24gg\JJ	.
4d/	4ff#\ 4b\	.
=38	=38	=38
24c#/LL	24ee\LL	.
24d/	24ff#\	.
24c#/JJ	24ee\JJ	.
4B/	4dd\	.
=39	=39	=39
*tremolo	*	*
8e/L 8c#/	(16.cc#\LL	.
.	32ff#\JJk)	.
8e/ 8c#/	8f#/L	.
8e/J 8c#/	16g#X/L	.
.	16a#X/JJ	.
!!LO:LB:g=original
=40	=40	=40
8d/L 8B/	16.b\LL	.
.	32cc#\K	.
8d/ 8B/	16.dd\	.
.	32ee\JK	.
8d/J 8B/	8ff#\J	.
=41	=41	=41
!LO:TX:t=1ma	!	!
*>E1	*	*
8e/L 8c#/	(16.cc#\LL	.
.	32ff#\JJk)	.
8e/ 8c#/	8f#/L	.
8e/J 8c#/	16g#X/L	.
.	16a#X/JJ	.
=42	=42	=42
*Xtremolo	*	*
16d/ 16B/	32cc#\KLL	.
.	16b\JJ	.
16r	.	.
.	32r	.
4d/ 4B/	4bb\ 4b\ 4d\	.
=43:|!	=43:|!	=43:|!
!LO:TX:t=2	!	!
*>E2	*	*
*tremolo	*	*
8gn/L 8A/	(16.ee\LL	f
.	32aa\JJk)	.
8g/ 8A/	8a/L	.
8g/J 8A/	16b/L	.
.	16cc#/JJ	.
*Xtremolo	*	*
=44	=44	=44
16f#/ 16A/	(32ee\KLL	.
.	16dd\JJ)	.
16r	.	.
.	32r	.
4f#/ 4A/	4dd/ 4f#/ 4A/	.
=45!|:	=45!|:	=45!|:
*>F	*	*
*tremolo	*	*
8e/L 8c#/	24ff#\LL	p
.	24gg\	.
.	24ff#\JJ	.
8e/ 8c#/	8cc#\	.
8e/J 8c#/	24ff#\LL	.
.	24gg\	.
.	24ff#\JJ	.
!!LO:LB:g=original
=46	=46	=46
8d/L 8B/	24dd\LL	.
.	24ee\	.
.	24dd\JJ	.
8d/ 8B/	8b'\L	.
8d/J 8B/	24dd\L	.
.	24ee\	.
.	24dd\JJ	.
=47	=47	=47
8e/L 8c#/	24cc#\LL	.
.	24dd\	.
.	24cc#\JJ	.
8e/ 8c#/	8f#/L	.
8e/J 8c#/	16g#X/L	.
.	16a#X/JJ	.
=48	=48	=48
8d/L 8B/	16b\LL|	.
.	16cc#\|	.
8d/ 8B/	16dd\|	.
.	16ee\J|	.
8d/J 8B/	8ff#\J|	.
=49	=49	=49
8e/L 8c#/	24ff#\LL	.
.	24gg\	.
.	24ff#\JJ	.
8e/ 8c#/	8cc#\L 8f#'\	.
8e/J 8c#/	24ff#\L	.
.	24gg\	.
.	24ff#\JJ	.
=50	=50	=50
8d/L 8B/	24dd\LL	.
.	24ee\	.
.	24dd\JJ	.
8d/ 8B/	8b\L 8d\	.
8d/J 8B/	24dd\L	.
.	24ee\	.
.	24dd\JJ	.
=51	=51	=51
8e/L 8c#/	24cc#\LL	.
.	24dd\	.
.	24cc#\JJ	.
8e/ 8c#/	8f#/L	.
8e/J 8c#/	16g#X/L	.
.	16a#X/JJ	.
*Xtremolo	*	*
=52	=52	=52
16d/ 16B/	(32cc#\KLL	.
.	16b\JJ)	.
16r	.	.
.	32r	.
!	!LO:TX:b:t=V&colon; S&colon;	!
4d/ 4B/	4bb\ 4b\ 4d\	.
!!LO:PB:g=original
=53:|!|:	=53:|!|:	=53:|!|:
*>G	*	*
16.a/LL 16.e/ 16.A/	16.aa\LL 16.cc#\ 16.e\	f
32e/JJk 32A/	32aa\JJk 32cc#\	.
8e/L 8A/	8aa\L 8cc#\	.
8c#/J	8aa\J 8cc#\	.
=54	=54	=54
16.d/LL	16.ff#\LL 16.a\ 16.d\	.
32e/K	32gg\K	.
16.f#/	16.ff#\	.
32g/JK	32ee\JK	.
8g#X/J	8dd^<\J	.
=55	=55	=55
16a/	24cc#\LL	.
.	24dd\	.
16r	.	.
.	24ee\JJ	.
8a/L 8gn/	8a/L	.
8a/J 8g/	16b/L	.
.	16cc#/JJ	.
=56	=56	=56
*tremolo	*	*
8a/L 8f#/	16.dd\LL	.
.	32ff#\K	.
8a/ 8f#/	16.aa\	.
.	32bb\JK	.
8a/J 8f#/	8aa\J	.
*Xtremolo	*	*
=57	=57	=57
16.a/LL 16.e/ 16.A/	16.aa\LL 16.cc#\ 16.e\	.
32a/JJk 32e/ 32A/	32aa\JJk 32cc#\	.
8e/L 8A/	8aa\L 8cc#\	.
8c#/J	8aa\J 8a\	.
!!LO:LB:g=original
=58	=58	=58
16.d/LL	16.ff#\LL 16.a\ 16.d\	.
32e/K	32gg\K	.
16.f#/	16.ff#\	.
32g/JK	32ee\JK	.
8g#X/J	8dd^<\J	.
=59	=59	=59
16a/	24cc#\LL	.
.	24dd\	.
16r	.	.
.	24ee\JJ	.
8a/L 8gn/	8a/L	.
8a/J 8g/	16b/L	.
.	16cc#/JJ	.
=60	=60	=60
16a/ 16f#/	(32ee\KLL	.
.	16dd\JJ)	.
16r	.	.
.	32r	.
4a/ 4d/	4dd/ 4f#/ 4A/	.
=61:|!|:	=61:|!|:	=61:|!|:
*>H	*	*
!	!LO:TX:a:t=dolce	!
(8.b/L 8.d/ 8.G/	8.dd/L 8.g/ 8.G/	.
16a#X/Jk)	16cc#/Jk	.
(16b/LL	(16dd\LL	.
16a#/JJ)	16cc#\JJ)	.
=62	=62	=62
16ccn\	16ee\|	.
16r	16r	.
4b/ 4d/	4dd/ 4g/	.
=63	=63	=63
24ee\LL 24ccn\ 24g\	24gg\LL 24ccn\ 24e\	.
24ff#\	24aa\	.
24ee\JJ	24gg\JJ	.
8dd\L	8ff#\L	.
8cc\J	8ee\J	.
!!LO:LB:g=original
=64	=64	=64
16ccn\	16ee\	.
16r	16r	.
4b/ 4d/	4dd/ 4g/	.
=65	=65	=65
*tremolo	*	*
8ccn/L 8d/	16.ccn/LL	.
.	32d/K	.
8cc/ 8d/	16.a/	.
.	32ee/JJk	.
8cc/J 8d/	8dd\	.
=66	=66	=66
8b/L 8d/	16.b/LL	.
.	32d/K	.
8b/ 8d/	16.g/	.
.	32ee/JJk	.
8b/J 8d/	8dd'\	.
=67	=67	=67
!LO:TX:t=1ma	!	!
*>H1	*	*
8g/L 8A/	24a/LL	f
.	24b/	.
.	24a/JJ	.
8g/ 8A/	(16g#X\LL	.
.	16a\)	.
8g/J 8A/	(16ff#\	.
.	16ee\JJ)	.
*Xtremolo	*	*
=68	=68	=68
16f#/ 16A/	16dd\	.
16r	16r	.
*	*tremolo	*
4f#/ 4A/	16dd/LL 16f#^/	.
.	16dd/ 16f#/	.
.	16dd/ 16f#/	.
.	16dd/JJ 16f#/	.
*	*Xtremolo	*
!!LO:LB:g=original
=69:|!	=69:|!	=69:|!
!LO:TX:t=2da	!	!
*>H2	*	*
8a/L 8cn/	24aa\LL	.
.	24bb\	.
.	24aa\JJ	.
8a/ 8c/	16.ee\LL	.
.	32aa\K	.
8a/J 8c/	16.ff#\	.
.	32dd\JJk	.
=70	=70	=70
16g/ 16B/	(32aa\KLL	.
.	16gg\JJ)	.
16r	.	.
.	32r	.
4g/ 4B/	4gg\ 4b\ 4d\	.
=71!|:	=71!|:	=71!|:
*>I	*	*
16.f#/LL 16.B/	16.bb\LL 16.dd#X\ 16.f#\	f
32f#/JJk 32B/	32bb\JJk 32dd#\	.
8f#/L 8B/	8bb\L 8dd#\	.
8d#X/J	8aa\J 8b\	.
=72	=72	=72
24e/LL	24gg\LL	.
24d#X/	24aa\	.
24e/JJ	24gg\JJ	.
24f#/LL	24ff#\LL	.
24e/	24gg\	.
24f#/JJ	24ff#\J	.
24g/LL	8ee'\J	.
24a/	.	.
24a#X/JJ	.	.
=73	=73	=73
8b/L	24dd#X\LL	.
.	24ee\	.
.	24ff#\JJ	.
8an/ 8B/	8b\L	.
8a/J 8B/	16cc#\L	.
.	16dd#\JJ	.
!!LO:LB:g=original
=74	=74	=74
16.g/LL 16.B/	16.ee\LL	.
32a/K	32ff#\K	.
16.g/	16.gg\	.
32f#/JK	32aa\JK	.
8e/J	8bb\J	.
=75	=75	=75
16.B/LL	16.bb\LL 16.dd#X\ 16.f#\	.
32B/JJk	32bb\JJk 32dd#\	.
8B/L	8bb\L 8dd#\	.
8d#X/J	8aa\J 8b\	.
=76	=76	=76
24e/LL	24gg\LL	.
24d#X/	24aa\	.
24e/JJ	24gg\JJ	.
24f#/LL	24ff#\LL	.
24e/	24gg\	.
24f#/JJ	24ff#\J	.
24g/LL	8ee'\J	.
24a/	.	.
24a#X/JJ	.	.
=77	=77	=77
8b/	24dd#X\LL	.
.	24ee\	.
.	24ff#\JJ	.
8an/L 8B/	8b'\L	.
8a/J 8B/	(16cc#\L	.
.	16dd#\JJ)	.
=78	=78	=78
16g/ 16B/	(32ff#\KLL	.
.	16ee\JJ)	.
16r	.	.
.	32r	.
4g/ 4B/	4ee/ 4b/ 4e^/	.
!!LO:PB:g=original
=79:|!|:	=79:|!|:	=79:|!|:
*>J	*	*
!	!LO:TX:b:t=dolce	!
8.b/L 8.d/ 8.G/	8.dd/L 8.g/ 8.G/	.
16a#X/Jk	16cc#/Jk	.
(16b/LL	(16dd\LL	.
16a#/JJ)	16cc#\JJ)	.
=80	=80	=80
16ccn/	16ee\	.
16r	16r	.
4b/ 4d/	4dd/ 4g^</	.
=81	=81	=81
24ee/LL 24ccn/ 24g/	24gg\LL 24ccn\ 24e\	.
24ff#/	24aa\	.
24ee/JJ	24gg\JJ	.
8dd/L	8ff#\L	.
8cc/J	8ee\J	.
=82	=82	=82
16ccn/	16ee\	.
16r	16r	.
4b/ 4d/	4dd/ 4g^/	.
=83	=83	=83
*tremolo	*	*
8ccn/L 8d/	16.ccn/LL	.
.	32d/K	.
8cc/ 8d/	16.a/	.
.	32ee/JJk	.
8cc/J 8d/	8dd\	.
=84	=84	=84
8b/L 8d/	16.b/LL	.
.	32d/K	.
8b/ 8d/	16.g/	.
.	32ee/JJk	.
8b/J 8d/	8dd\	.
!!LO:LB:g=original
=85	=85	=85
!LO:TX:t=1ma	!	!
*>J1	*	*
8g/L 8A/	24a/LL	f
.	24b/	.
.	24a/JJ	.
8g/ 8A/	(16g#X/LL	.
.	16a/JJ)	.
8g/J 8A/	(16ff#\LL	.
.	16ee\JJ)	.
*Xtremolo	*	*
=86	=86	=86
16f#/ 16A/	16dd\	.
16r	16r	.
4f#/ 4A/	4dd/ 4f#/ 4A/	.
=87:|!	=87:|!	=87:|!
!LO:TX:t=2da	!	!
*>J2	*	*
8a/L 8cn/	24aa\LL	.
.	24bb\	.
.	24aa\JJ	.
8a/ 8c/	16.ee\LL	.
.	32aa\K	.
8a/J 8d/	16.ff#\	.
.	32dd\JJk	.
=88	=88	=88
16g/ 16B/	(32aa\KLL	.
.	16gg\JJ)	.
16r	.	.
.	32r	.
4g/ 4B/	4gg\ 4b\ 4d\	.
=89!|:	=89!|:	=89!|:
*>K	*	*
.	(16qqaa/LL	f
.	32qqbb/L	.
.	32qqccc#/JJJ	.
16dd/ 16f#/ 16A/	16ddd\)	.
16r	16r	.
16f#/ 16A/	16aa\ 16dd\	.
16r	16r	.
8g/ 8G/	(8bb\ 8dd^<\	.
!!LO:LB:g=original
=90	=90	=90
16.d/LL	16.aa\LL)	.
32e/K	32gg\K	.
16.f#/	16.ff#\	.
32g/JK	32ee\JK	.
8g#X/J	8dd^\J	.
=91	=91	=91
8a/	24cc#\LL	.
.	24dd\	.
.	24ee\JJ	.
8gn/L 8A/	8a/L	.
8g/J 8A/	16b/L	.
.	16cc#/JJ	.
=92	=92	=92
*tremolo	*	*
8f#/L 8A/	16.dd\LL	.
.	32ff#\K	.
8f#/ 8A/	16.aa\	.
.	32bb\JK	.
8f#/J 8A/	8aa\J	.
*Xtremolo	*	*
=93	=93	=93
.	(16qqaa/LL	.
.	32qqbb/L	.
.	32qqccc#/JJJ	.
16dd/ 16f#/ 16A/	16ddd\)	.
16r	16r	.
16f#/ 16A/	16aa\ 16dd\	.
16r	16r	.
8g/ 8G/	(8bb\ 8dd\	.
=94	=94	=94
16.d/LL	16.aa\LL)	.
32e/K	32gg\K	.
16.f#/	16.ff#\	.
32g/JK	32ee\JK	.
8g#X/J	8dd^\J	.
!!LO:LB:g=original
=95	=95	=95
*tremolo	*	*
8gn/L 8A/	24cc#\LL	.
.	24dd\	.
.	24ee\JJ	.
8g/ 8A/	8a/L	.
8g/J 8A/	16b/L	.
.	16cc#/JJ	.
*Xtremolo	*	*
=96	=96	=96
16f#/ 16A/	(32ee\KLL	.
.	16dd\JJ)	.
16r	.	.
.	32r	.
4f#/ 4A/	4dd/ 4f#/ 4A/	.
=97:|!|:	=97:|!|:	=97:|!|:
*>L	*	*
16.f#/LL 16.A#X/	16.ff#\LL 16.cc#\ 16.f#\	.
32f#/JJk 32A#/	32ff#\JJk 32cc#\	.
8f#/L 8A#/	8ff#\L 8cc#\	.
8f#/J 8A#/	8ee\J	.
=98	=98	=98
24B/LL	24dd\LL	.
24A#X/	24ee\	.
24B/JJ	24dd\JJ	.
24c#/LL	24cc#\LL	.
24B/	24dd\	.
24c#/JJ	24cc#\J	.
8d/	8b'\J	.
=99	=99	=99
16.e/LL	16.ee\LL 16.b\ 16.e\	.
32e/JJk	32ee\JJk 32b\	.
8e/L	8ee\L	.
8G#X/J	8dd\J	.
=100	=100	=100
24A/LL	24cc#\LL	.
24G#X/	24dd\	.
24A/JJ	24cc#\JJ	.
24B/LL	24b\LL	.
24A/	24cc#\	.
24B/J	24b\JJ	.
8c#/J	8a/	.
!!LO:LB:g=original
=101	=101	=101
.	(16qqaa/LL	.
.	32qqbb/L	.
.	32qqccc#/JJJ)	.
16dd/ 16f#/ 16A/	16ddd\	f
16r	16r	.
16f#/ 16A/	16aa\ 16dd\	.
16r	16r	.
8g/ 8G/	(8bb\ 8dd^<\	.
=102	=102	=102
16.d/LL	16.aa\LL)	.
32e/K	32gg\K	.
16.f#/	16.ff#\	.
32g/JK	32ee\JK	.
8g#X/J	8dd^<\J	.
=103	=103	=103
16a/	24cc#\LL	.
.	24dd\	.
16r	.	.
.	24ee\JJ	.
8gn/L 8A/	8a/L	.
8g/J 8A/	16b/L	.
.	16cc#/JJ	.
=104	=104	=104
16f#/ 16A/	(32ee\KLL	.
.	16dd\JJ)	.
16r	.	.
.	32r	.
!	!LO:TX:b:t=V&colon; S&colon;	!
4f#/ 4A/	4dd/ 4f#/ 4A/	.
!!LO:PB:g=original
=105:|!	=105:|!	=105:|!
*>M	*	*
24d/LL	24ff#\LL	p
24e/	24gg\	.
24d/JJ	24ff#\JJ	.
8B/L	8dd\L	.
8d/J	8bb\J 8b\	.
=106	=106	=106
24e/LL	24gg\LL	.
24f#/	24aa\	.
24e/JJ	24gg\JJ	.
4d/	4ff#\ 4b^<\	.
=107	=107	=107
24e/LL	24gg\LL	.
24f#/	24aa\	.
24e/JJ	24gg\JJ	.
4d/	4ff#\ 4b^<\	.
=108	=108	=108
24c#/LL	24ee\LL	.
24d/	24ff#\	.
24c#/JJ	24ee\JJ	.
4B/	4dd\	.
=109	=109	=109
*tremolo	*	*
8e/L 8c#/	16.cc#\LL	.
.	32ff#\JJk	.
8e/ 8c#/	8f#/L	.
8e/J 8c#/	16g#X/L	.
.	16a#X/JJ	.
=110	=110	=110
8d/L 8B/	16.b\LL|	.
.	32cc#\K|	.
8d/ 8B/	16.dd\|	.
.	32ee\JK|	.
8d/J 8B/	8ff#\J|	.
!!LO:LB:g=original
=111	=111	=111
8e/L 8c#/	(16.cc#\LL	f
.	32ff#\JJk)	.
8e/ 8c#/	8f#/L	.
8e/J 8c#/	16g#X/L	.
.	16a#X/JJ	.
*Xtremolo	*	*
=112	=112	=112
16d/ 16B/	(32cc#\KLL	.
.	16b\JJ)	.
16r	.	.
.	32r	.
4d/ 4B/	4b/ 4d/	.
=113||	=113||	=113||
*tremolo	*	*
8e/L 8c#/	24ff#\LL	p
.	24gg\	.
.	24ff#\JJ	.
8e/ 8c#/	8cc#\	.
8e/J 8c#/	24ff#\LL	.
.	24gg\	.
.	24ff#\JJ	.
=114	=114	=114
8d/L 8B/	24dd\LL	.
.	24ee\	.
.	24dd\JJ	.
8d/ 8B/	8b\	.
8d/J 8B/	24dd\LL	.
.	24ee\	.
.	24dd\JJ	.
=115	=115	=115
8e/L 8c#/	24cc#\LL	.
.	24dd\	.
.	24cc#\JJ	.
8e/ 8c#/	8f#/L	.
8e/J 8c#/	16g#X/L	.
.	16a#X/JJ	.
!!LO:LB:g=original
=116	=116	=116
8d/L 8B/	16.b\LL	.
.	32cc#\K	.
8d/ 8B/	16.dd\	.
.	32ee\JK	.
8d/J 8B/	8ff#\J	.
=117	=117	=117
8e/L 8c#/	24ff#\LL	.
.	24gg\	.
.	24ff#\JJ	.
8e/ 8c#/	8cc#\	.
8e/J 8c#/	24ff#\LL	.
.	24gg\	.
.	24ff#\JJ	.
=118	=118	=118
8d/L 8B/	24dd\LL	.
.	24ee\	.
.	24dd\JJ	.
8d/ 8B/	8b\	.
8d/J 8B/	24dd\LL	.
.	24ee\	.
.	24dd\JJ	.
=119	=119	=119
8e/L 8c#/	24cc#\LL	.
.	24dd\	.
.	24cc#\JJ	.
8e/ 8c#/	8f#/L	.
8e/J 8c#/	16g#X/L	.
.	16a#X/JJ	.
*Xtremolo	*	*
=120	=120	=120
16d/ 16B/	32cc#\KLL	.
.	16b\JJ	.
16r	.	.
.	32r	.
4d/ 4B/	4bb\ 4b\ 4d^<\	.
!!LO:LB:g=original
=121||	=121||	=121||
16.a/LL 16.e/ 16.A/	16.aa\LL 16.cc#\ 16.e\	f
32e/JJk 32A/	32aa\JJk 32cc#\	.
8e/L 8A/	8aa\L 8cc#\	.
8c#/J	8aa\J 8cc#\	.
=122	=122	=122
16.d/LL	16.ff#\LL 16.a\ 16.d\	.
32e/K	32gg\K	.
16.f#/	16.ff#\	.
32g/JK	32ee\JK	.
8g#X/J	8dd^\J	.
=123	=123	=123
8a/L	24cc#\LL	.
.	24dd\	.
.	24ee\JJ	.
8a/ 8gn/	8a/L	.
8a/J 8g/	16b/L	.
.	16cc#/JJ	.
=124	=124	=124
*tremolo	*	*
8a/L 8f#/	16.dd\LL	.
.	32ff#\K	.
8a/ 8f#/	16.aa\	.
.	32bb\JK	.
8a/J 8f#/	8aa\J	.
*Xtremolo	*	*
=125	=125	=125
16.a/LL 16.e/ 16.A/	16.aa\LL 16.cc#\ 16.e\	.
32e/JJk 32A/	32aa\JJk 32cc#\	.
8e/L 8A/	8aa\L 8cc#\	.
8c#/J	8aa\J 8a\	.
!!LO:LB:g=original
=126	=126	=126
16.d/LL	16.ff#\LL 16.a\ 16.d\	.
32e/K	32gg\K	.
16.f#/	16.ff#\	.
32g/JK	32ee\JK	.
8g#X/J	8dd^<\J	.
=127	=127	=127
16a/	24cc#\LL	.
.	24dd\	.
16r	.	.
.	24ee\JJ	.
8a/L 8gn/	8a/L	.
8a/J 8g/	16b/L	.
.	16cc#/JJ	.
=128	=128	=128
16a/ 16f#/	(32ee\KLL	.
.	16dd\JJ)	.
16r	.	.
.	32r	.
4a/ 4f#/	4dd/ 4f#/ 4A/	.
=129:|!|:	=129:|!|:	=129:|!|:
*>N	*	*
24d/LL	24ff#\LL	p
24e/	24gg\	.
24d/JJ	24ff#\JJ	.
8B/L	8dd\L	.
8d/J	8bb\J 8b\	.
=130	=130	=130
24e/LL	24gg\LL	.
24f#/	24aa\	.
24e/JJ	24gg\JJ	.
4d/	4ff#\ 4b\	.
!!LO:PB:g=original
=131	=131	=131
24e/LL	24gg\LL	.
24f#/	24aa\	.
24e/JJ	24gg\JJ	.
4d/	4ff#\ 4b\	.
=132	=132	=132
24c#/LL	24ee\LL	.
24d/	24ff#\	.
24c#/JJ	24ee\JJ	.
4B/	4dd\	.
=133	=133	=133
*tremolo	*	*
8e/L 8c#/	(16.cc#\LL	.
.	32ff#\JJk)	.
8e/ 8c#/	8f#/L	.
8e/J 8c#/	16g#X/L	.
.	16a#X/JJ	.
=134	=134	=134
8d/L 8B/	16.b'\LL	.
.	32cc#'\K	.
8d/ 8B/	16.dd'\	.
.	32ee'\JK	.
8d/J 8B/	8ff#'\J	.
*Xtremolo	*	*
=135	=135	=135
!LO:TX:t=1ma	!	!
*>N1	*	*
8e/L 8c#/	(16.cc#\LL	.
.	32ff#\JJk)	.
8e/ 8c#/	8f#/L	.
8e/J 8c#/	16g#X/L	.
.	16a#X/JJ	.
!!LO:LB:g=original
=136	=136	=136
16d/ 16B/	(32cc#\KLL	.
.	16b\JJ)	.
16r	.	.
.	32r	.
4d/ 4B/	4b/ 4d/	.
=137:|!	=137:|!	=137:|!
!LO:TX:t=2	!	!
*>N2	*	*
*tremolo	*	*
8gn/L 8A/	(16.ee\LL	f
.	32aa\JJk)	.
8g/ 8A/	8a\L	.
8g/J 8A/	16b\L	.
.	16cc#\JJ	.
*Xtremolo	*	*
=138	=138	=138
16f#/ 16A/	(32ee\KLL	.
.	16dd\JJ)	.
16r	.	.
.	32r	.
4f#/ 4A/	4dd/ 4f#/ 4A/	.
=139!|:	=139!|:	=139!|:
*>O	*	*
*tremolo	*	*
8e/L 8c#/	24ff#\LL	p
.	24gg\	.
.	24ff#\JJ	.
8e/ 8c#/	8cc#\	.
8e/J 8c#/	24ff#\LL	.
.	24gg\	.
.	24ff#\JJ	.
=140	=140	=140
8d/L 8B/	24dd\LL	.
.	24ee\	.
.	24dd\JJ	.
8d/ 8B/	8b\L	.
8d/J 8B/	24dd\L	.
.	24ee\	.
.	24dd\JJ	.
!!LO:LB:g=original
=141	=141	=141
8e/L 8c#/	24cc#\LL	.
.	24dd\	.
.	24cc#\JJ	.
8e/ 8c#/	8f#/L	.
8e/J 8c#/	16g#X/L	.
.	16a#X/JJ	.
=142	=142	=142
8d/L 8B/	16.b\LL	.
.	32cc#\K	.
8d/ 8B/	16.dd\	.
.	32ee\JK	.
8d/J 8B/	8ff#\J	.
=143	=143	=143
8e/L 8c#/	24ff#\LL	.
.	24gg\	.
.	24ff#\JJ	.
8e/ 8c#/	8cc#\	.
8e/J 8c#/	24ff#\LL	.
.	24gg\	.
.	24ff#\JJ	.
=144	=144	=144
8d/L 8B/	24dd\LL	.
.	24ee\	.
.	24dd\JJ	.
8d/ 8B/	8b\	.
8d/J 8B/	24dd\LL	.
.	24ee\	.
.	24dd\JJ	.
=145	=145	=145
8e/L 8c#/	24cc#\LL	.
.	24dd\	.
.	24cc#\JJ	.
8e/ 8c#/	8f#/L	.
8e/J 8c#/	16g#X/L	.
.	16a#X/JJ	.
*Xtremolo	*	*
!!LO:LB:g=original
=146	=146	=146
16d/ 16B/	(32cc#\KLL	.
.	16b\JJ)	.
16r	.	.
.	32r	.
4d/ 4B/	4bb\ 4b\ 4d\	.
=147:|!|:	=147:|!|:	=147:|!|:
*>P	*	*
16.cc#/LL 16.e/ 16.A/	16.aa\LL 16.cc#\ 16.e\	f
32cc#/JJk 32e/ 32A/	32aa\JJk 32cc#\	.
8e/L 8A/	8aa\L 8cc#\	.
8c#/J	8aa\J 8a\	.
=148	=148	=148
16.d/LL	16.ff#\LL 16.a\ 16.d\	.
32e/K	32gg\K	.
16.f#/	16.ff#\	.
32g/JK	32ee\JK	.
8g#X/J	8dd^<\J	.
=149	=149	=149
16a/	24cc#\LL	.
.	24dd\	.
16r	.	.
.	24ee\JJ	.
8a/L 8gn/	8a/L	.
8a/J 8g/	16b/L	.
.	16cc#/JJ	.
=150	=150	=150
*tremolo	*	*
8a/L 8f#/	16.dd\LL	.
.	32ff#\K	.
8a/ 8f#/	16.aa\	.
.	32bb\JK	.
8a/J 8f#/	8aa\J	.
*Xtremolo	*	*
!!LO:LB:g=original
=151	=151	=151
16.cc#/LL 16.e/ 16.A/	16.aa\LL 16.cc#\ 16.e\	.
32e/JJk 32A/	32aa\JJk 32cc#\	.
8e/L 8A/	8aa\L 8cc#\	.
8c#/J	8aa\J 8a\	.
=152	=152	=152
16.d/LL	16.ff#\LL 16.a\ 16.d\	.
32e/K	32gg\K	.
16.f#/	16.ff#\	.
32g/JK	32ee\JK	.
8g#X/J	8dd^<\J	.
=153	=153	=153
8a/L	24cc#\LL	.
.	24dd\	.
.	24ee\JJ	.
8a/ 8gn/	8a/L	.
8a/J 8g/	16b/L	.
.	16cc#/JJ	.
=154	=154	=154
16a/ 16f#/	(32ee\KLL	.
.	16dd\JJ)	.
16r	.	.
.	32r	.
4a/ 4f#/	4dd/ 4f#/ 4A/	.
!!LO:PB:g=original
=155:|!	=155:|!	=155:|!
*>R	*	*
!	!LO:TX:b:t=dolce	!
(8.b/L 8.d/ 8.G/	(8.dd/L 8.g/ 8.G/	.
16a#X/Jk)	16cc#/Jk)	.
(16b/LL	(16dd/LL	.
16a#/JJ)	16cc#/JJ)	.
=156	=156	=156
16ccn\	16dd\|	.
16r	16r	.
4b/ 4d/	4dd\ 4g\	.
=157	=157	=157
24ee\LL 24ccn\ 24g\	24gg\LL 24ccn\ 24e\	.
24ff#\	24aa\	.
24ee\JJ	24gg\JJ	.
8dd\L	8ff#\L	.
8cc\J	8ee\J	.
=158	=158	=158
16ccn\	16ee\	.
16r	16r	.
4b/ 4d/	4dd/ 4g^/	.
=159	=159	=159
*tremolo	*	*
8ccn/L 8d/	16.ccn/LL	.
.	32d/K	.
8cc/ 8d/	16.a/	.
.	32ee/JJk	.
8cc/J 8d/	8dd\	.
!!LO:LB:g=original
=160	=160	=160
8b/L 8d/	16.b/LL	.
.	32d/K	.
8b/ 8d/	16.g/	.
.	32ee/JJk	.
8b/J 8d/	8dd\	.
=161	=161	=161
!LO:TX:t=1ma	!	!
*>R1	*	*
8g/L 8A/	24a/LL	f
.	24b/	.
.	24a/JJ	.
8g/ 8A/	(16g#X/LL	.
.	16a/JJ)	.
8g/J 8A/	(16ff#\LL	.
.	16ee\JJ)	.
*Xtremolo	*	*
=162	=162	=162
16f#/ 16A/	16dd\	.
16r	16r	.
4f#/ 4A/	4dd/ 4f#/ 4A/	.
=163:|!	=163:|!	=163:|!
!LO:TX:t=2	!	!
*>R2	*	*
8a/L 8cn/	24aa\LL	.
.	24bb\	.
.	24aa\JJ	.
8a/ 8c/	16.ee\LL	.
.	32aa\K	.
8a/J 8d/	16.ff#\	.
.	32dd\JJk	.
=164	=164	=164
16g/ 16B/	(32aa\KLL	.
.	16gg\JJ)	.
16r	.	.
.	32r	.
4g/ 4B/	4gg\ 4b\	.
!!LO:LB:g=original
=165||	=165||	=165||
*>S	*	*
16.f#/LL 16.B/	16.bb\LL 16.dd#X\ 16.f#\	f
32f#/JJk 32B/	32bb\JJk 32dd#\	.
8f#/L 8B/	8bb\L 8dd#\	.
8d#X/J	8aa\J 8b\	.
=166	=166	=166
(24e/LL	24gg\LL	.
24d#X/	24aa\	.
24e/JJ	24gg\JJ	.
24f#/LL	24ff#\LL	.
24e/	24gg\	.
24f#/JJ	24ff#\JJ	.
24g/LL	8ee\	.
24a/	.	.
24a#X/JJ)	.	.
=167	=167	=167
8b/L	24dd#X\LL	.
.	24ee\	.
.	24ff#\JJ	.
8an/ 8B/	8b\L	.
8a/J 8B/	16cc#\L	.
.	16dd#\JJ	.
=168	=168	=168
16.g/LL	16.ee\LL	.
32a/K	32ff#\K	.
16.g/	16.gg\	.
32f#/JK	32aa\JK	.
8e/J	8bb\J	.
=169	=169	=169
16.B/LL	16.bb\LL 16.dd#X\ 16.f#\	.
32B/JJk	32bb\JJk 32dd#\	.
8B/L	8bb\L 8dd#\	.
8d#X/J	8aa\J 8b\	.
!!LO:LB:g=original
=170	=170	=170
(24e/LL	24gg\LL	.
24d#X/	24aa\	.
24e/JJ	24gg\JJ	.
24f#/LL	24ff#\LL	.
24e/	24gg\	.
24f#/JJ	24ff#\JJ	.
24g/LL	8ee\	.
24a/	.	.
24a#X/JJ)	.	.
=171	=171	=171
8b/	24dd#X\LL	.
.	24ee\	.
.	24ff#\JJ	.
8an/L 8B/	8b\L	.
8a/J 8B/	16cc#\L	.
.	16dd#\JJ	.
=172	=172	=172
16g/ 16B/	(32ff#\KLL	.
.	16ee\JJ)	.
16r	.	.
.	32r	.
4g/ 4B/	4ee/ 4b/ 4e/	.
=173:|!|:	=173:|!|:	=173:|!|:
*>T	*	*
!	!LO:TX:b:t=dolce	!
(8.b/L 8.d/ 8.G/	(8.dd/L 8.g/ 8.G/	.
16a#X/Jk)	16cc#/Jk)	.
(16b/LL	(16dd\LL	.
16a#/JJ)	16cc#\JJ)	.
=174	=174	=174
16ccn\	16ee\	.
16r	16r	.
4b/ 4d/	4dd/ 4g/	.
!!LO:LB:g=original
=175	=175	=175
24ee\LL 24ccn\ 24g\	24gg\LL 24ccn\ 24e\	.
24ff#\	24aa\	.
24ee\JJ	24gg\JJ	.
8dd\L	8ff#\L	.
8cc\J	8ee\J	.
=176	=176	=176
16ccn\	16ee\	.
16r	16r	.
4b/ 4d/	4dd\ 4g\	.
=177	=177	=177
*tremolo	*	*
8ccn/L 8d/	16.ccn/LL	.
.	32d/K	.
8cc/ 8d/	16.a/	.
.	32ee/JJk	.
8cc/J 8d/	8dd\	.
=178	=178	=178
8b/L 8d/	16.b/LL	.
.	32d/K	.
8b/ 8d/	16.g/	.
.	32ee/JJk	.
8b/J 8d/	8dd\	.
=179	=179	=179
!LO:TX:t=1ma	!	!
*>T1	*	*
8g/L 8A/	24a/LL	.
.	24b/	.
.	24a/JJ	.
8g/ 8A/	(16g#X/LL	.
.	16a/JJ)	.
8g/J 8A/	(16ff#\LL	.
.	16ee\JJ)	.
*Xtremolo	*	*
=180	=180	=180
16f#/ 16A/	16dd\	.
16r	16r	.
4f#/ 4A/	4dd/ 4f#/ 4A/	.
!!LO:PB:g=original
=181:|!	=181:|!	=181:|!
!LO:TX:t=2	!	!
*>T2	*	*
8a/L 8cn/	24aa\LL	p
.	24bb\	.
.	24aa\JJ	.
8a/ 8c/	16.ee\LL	.
.	32aa\K	.
8a/J 8d/	16.ff#\	.
.	32dd\JJk	.
=182	=182	=182
16g/ 16B/	(32aa\KLL	.
.	16gg\JJ)	.
16r	.	.
.	32r	.
4g/ 4B/	4gg\ 4b\	.
=183!|:	=183!|:	=183!|:
*>U	*	*
.	(16qqaa/LL	f
.	32qqbb/L	.
.	32qqccc#/JJJ)	.
16dd/ 16f#/ 16A/	16ddd\	.
16r	16r	.
16f#/ 16A/	16aa\ 16dd\	.
16r	16r	.
(8g/ 8G/	(8bb\ 8dd\	.
=184	=184	=184
16.d/LL)	16.aa\LL)	.
32e/K	32gg\K	.
16.f#/	16.ff#\	.
32g/JK	32ee\JK	.
8g#X/J	8dd^\J	.
!!LO:LB:g=original
=185	=185	=185
8a/	24cc#\LL	.
.	24dd\	.
.	24ee\JJ	.
8gn/L 8A/	8a/L	.
8g/J 8A/	16b/L	.
.	16cc#/JJ	.
=186	=186	=186
*tremolo	*	*
8f#/L 8A/	16.dd\LL	.
.	32ff#\K	.
8f#/ 8A/	16.aa\	.
.	32bb\JK	.
8f#/J 8A/	8aa\J	.
*Xtremolo	*	*
=187	=187	=187
.	(16qqaa/LL	.
.	32qqbb/L	.
.	32qqccc#/JJJ	.
16dd/ 16f#/ 16A/	16ddd\)	.
16r	16r	.
16f#/ 16A/	16aa\ 16dd\	.
16r	16r	.
(8g/ 8G/	8bb\ 8dd\	.
=188	=188	=188
16.d/LL)	16.aa\LL	.
32e/K	32gg\K	.
16.f#/	16.ff#\	.
32g/JK	32ee\JK	.
8g#X/J	8dd^\J	.
=189	=189	=189
8a/	24dd\LL	.
.	24ee\	.
.	24ff#\JJ	.
8gn/L 8A/	8a/L	.
8g/J 8A/	16b/L	.
.	16cc#/JJ	.
!!LO:LB:g=original
=190	=190	=190
16f#/ 16A/	(32ee\KLL	.
.	16dd\JJ)	.
16r	.	.
.	32r	.
4f#/ 4A/	4dd/ 4f#/ 4A/	.
=191:|!|:	=191:|!|:	=191:|!|:
*>W	*	*
24d/LL	24ff#\LL	p
24e/	24gg\	.
24d/JJ	24ff#\JJ	.
8B/L	8dd\L	.
8d/J	8bb\J 8b\	.
=192	=192	=192
24e/LL	24gg\LL	.
24f#/	24aa\	.
24e/JJ	24gg\JJ	.
4d/	4ff#\ 4b\	.
=193	=193	=193
24e/LL	24gg\LL	.
24f#/	24aa\	.
24e/JJ	24gg\JJ	.
4d/	4ff#\ 4b\	.
=194	=194	=194
24c#/LL	24ee\LL	.
24d/	24ff#\	.
24c#/JJ	24ee\JJ	.
4B/	4dd\	.
!!LO:LB:g=original
=195	=195	=195
*tremolo	*	*
8e/L 8c#/	(16.a\LL	.
.	32ff#\JJk)	.
8e/ 8c#/	8f#/L	.
8e/J 8c#/	16g#X/L	.
.	16a#X/JJ	.
=196	=196	=196
8d/L 8B/	16.b\LL	.
.	32cc#\K	.
8d/ 8B/	16.dd\	.
.	32ee\JK	.
8d/J 8B/	8ff#\J	.
=197	=197	=197
!LO:TX:t=1ma	!	!
*>W1	*	*
8e/L 8c#/	(16.cc#\LL	.
.	32ff#\JJk)	.
8e/ 8c#/	8f#/L	.
8e/J 8c#/	16g#X/L	.
.	16a#X/JJ	.
*Xtremolo	*	*
=198	=198	=198
16d/ 16B/	(32cc#\KLL	.
.	16b\JJ)	.
16r	.	.
.	32r	.
4d/ 4B/	4b/ 4d/	.
=199:|!	=199:|!	=199:|!
!LO:TX:t=2	!	!
*>W2	*	*
*tremolo	*	*
8gn/L 8A/	(16.ee\LL	f
.	32aa\JJk)	.
8g/ 8A/	8a/L	.
8g/J 8A/	16b/L	.
.	16cc#/JJ	.
*Xtremolo	*	*
=200	=200	=200
16f#/ 16A/	(32ee\KLL	.
.	16dd\JJ)	.
16r	.	.
.	32r	.
!LO:TX:b:t=V&colon; S&colon;	!	!
4f#/ 4A/	4dd/ 4f#/	.
!!LO:PB:g=original
=201!|:	=201!|:	=201!|:
*>X	*	*
*tremolo	*	*
8e/L 8c#/	24ff#\LL	p
.	24gg\	.
.	24ff#\JJ	.
8e/ 8c#/	8cc#\	.
8e/J 8c#/	24ff#\LL	.
.	24gg\	.
.	24ff#\JJ	.
=202	=202	=202
8d/L 8B/	24dd\LL	.
.	24ee\	.
.	24dd\JJ	.
8d/ 8B/	8b\	.
8d/J 8B/	24dd\LL	.
.	24ee\	.
.	24dd\JJ	.
=203	=203	=203
8e/L 8c#/	24cc#\LL	.
.	24dd\	.
.	24cc#\JJ	.
8e/ 8c#/	8f#/L	.
8e/J 8c#/	16g#X/L	.
.	16a#X/JJ	.
=204	=204	=204
8d/L 8B/	16.b\LL	.
.	32cc#\K	.
8d/ 8B/	16.dd\	.
.	32ee\JK	.
8d/J 8B/	8ff#\J	.
!!LO:LB:g=original
=205	=205	=205
8e/L 8c#/	24ff#\LL	.
.	24gg\	.
.	24ff#\JJ	.
8e/ 8c#/	8cc#\	.
8e/J 8c#/	24ff#\LL	.
.	24gg\	.
.	24ff#\JJ	.
=206	=206	=206
8d/L 8B/	24dd\LL	.
.	24ee\	.
.	24dd\JJ	.
8d/ 8B/	8b\L	.
8d/J 8B/	24dd\L	.
.	24ee\	.
.	24dd\JJ	.
=207	=207	=207
8e/L 8c#/	24cc#\LL	.
.	24dd\	.
.	24cc#\JJ	.
8e/ 8c#/	8f#/L	.
8e/J 8c#/	16g#X/L	.
.	16a#X/JJ	.
*Xtremolo	*	*
=208	=208	=208
16d/ 16B/	(32cc#\KLL	.
.	16b\JJ)	.
16r	.	.
.	32r	.
4d/ 4B/	4bb\ 4b\ 4d\	.
=209:|!|:	=209:|!|:	=209:|!|:
*>Y	*	*
!	!LO:TX:b:t=dolce	!
(8.b/L 8.d/ 8.G/	(8.dd/L 8.g/ 8.G/	.
16a#X/Jk)	16cc#/Jk)	.
(16b/LL	(16dd\LL	.
16a#/JJ)	16cc#\JJ)	.
!!LO:LB:g=original
=210	=210	=210
16ccn\	16ee\	.
16r	16r	.
4b/ 4d/	4dd/ 4g/	.
=211	=211	=211
24ee\LL 24ccn\ 24g\	24gg\LL 24ccn\ 24e\	.
24ff#\	24aa\	.
24ee\JJ	24gg\JJ	.
8dd\L	8ff#\L	.
8cc\J	8ee\J	.
=212	=212	=212
16ccn\	16ee\	.
16r	16r	.
4b/ 4d/	4dd\ 4g\	.
=213	=213	=213
*tremolo	*	*
8ccn/L 8d/	16.ccn/LL	.
.	32d/K	.
8cc/ 8d/	16.a/	.
.	32ee/JJk	.
8cc/J 8d/	8dd\	.
=214	=214	=214
8b/L 8d/	16.b/LL	.
.	32d/K	.
8b/ 8d/	16.g/	.
.	32ee/JJk	.
8b/J 8d/	8dd\	.
!!LO:LB:g=original
=215	=215	=215
!LO:TX:t=1ma	!	!
*>Y1	*	*
8g/L 8A/	24a/LL	f
.	24b/	.
.	24a/JJ	.
8g/ 8A/	(16g#X/LL	.
.	16a/JJ)	.
8g/J 8A/	(16ff#\LL	.
.	16ee\JJ)	.
*Xtremolo	*	*
=216	=216	=216
16f#/ 16A/	16dd\	.
16r	16r	.
4f#/ 4A/	4dd/ 4f#/ 4A/	.
=217:|!	=217:|!	=217:|!
!LO:TX:t=2	!	!
*>Y2	*	*
8a/L 8cn/	24aa\LL	.
.	24bb\	.
.	24aa\JJ	.
8a/ 8c/	16.ee\LL	.
.	32aa\K	.
8a/J 8d/	16.ff#\	.
.	32dd\JJk	.
=218	=218	=218
16g/ 16B/	(32aa\KLL	.
.	16gg\JJ)	.
16r	.	.
.	32r	.
4g/ 4B/	4gg\ 4b\	.
=219	=219	=219
*>Z	*	*
.	(16qqaa/LL	f
.	32qqbb/L	.
.	32qqccc#/JJJ	.
16dd/ 16f#/ 16A/	16ddd\)	.
16r	16r	.
16f#/ 16A/	16aa\ 16dd\	.
16r	16r	.
8g/ 8G/	8bb\ 8dd^<\	.
!!LO:LB:g=original
=220	=220	=220
16.d/LL	16.aa\LL	.
32e/K	32gg\K	.
16.f#/	16.ff#\	.
32g/JK	32ee\JK	.
8g#X/J	8dd^<\J	.
=221	=221	=221
16a/	24cc#\LL	.
.	24dd\	.
16r	.	.
.	24ee\JJ	.
8gn/L 8A/	8a/L	.
8g/J 8A/	16b/L	.
.	16cc#/JJ	.
=222	=222	=222
*tremolo	*	*
8f#/L 8A/	16.dd\LL	.
.	32ff#\K	.
8f#/ 8A/	16.aa\	.
.	32bb\JK	.
8f#/J 8A/	8aa\J	.
*Xtremolo	*	*
=223	=223	=223
.	(16qqaa/LL	.
.	32qqbb/L	.
.	32qqccc#/JJJ	.
16dd/ 16f#/ 16A/	16ddd\)	.
16r	16r	.
16f#/ 16A/	16aa\ 16dd\	.
16r	16r	.
8g/ 8G/	8bb\ 8dd\	.
!!LO:PB:g=original
=||224	=||224	=||224
16.d/LL	16.aa\LL	.
32e/K	32gg\K	.
16.f#/	16.ff#\	.
32g/JK	32ee\JK	.
8g#X/J	8dd^<\J	.
=225	=225	=225
16a/	24cc#\LL	.
.	24dd\	.
16r	.	.
.	24ee\JJ	.
8gn/L 8A/	8a/L	.
8g/J 8A/	16b/L	.
.	16cc#/JJ	.
=226	=226	=226
16f#/ 16A/	32ee\KLL	.
.	16dd\JJ	.
16r	.	.
.	32r	.
4f#/ 4A/	4dd/ 4f#/ 4A/	.
=227:|!|:	=227:|!|:	=227:|!|:
*>Ź	*	*
16.f#/LL 16.A#X/	16.ff#/LL 16.cc#/ 16.f#/	f
32f#/JJk 32A#/	32ff#/JJk 32cc#/	.
8f#/L 8A#/	8ff#\L 8cc#\	.
8f#/J 8A#/	8ee\J	.
!!LO:LB:g=original
=228	=228	=228
(24B/LL	24dd\LL	.
24A#X/	24ee\	.
24B/JJ	24dd\JJ	.
24c#/LL	24cc#\LL	.
24B/	24dd\	.
24c#/JJ	24cc#\JJ	.
8d/)	8b\	.
=229	=229	=229
16e/LL	16.ee/LL 16.b/ 16.e/	.
16e/JJ	.	.
.	32ee/JJk 32b/	.
8e/L	8ee\L 8b\	.
8G#X/J	8dd\J	.
=230	=230	=230
24A/LL	24cc#\LL	.
24G#X/	24dd\	.
24A/JJ	24cc#\JJ	.
24B/LL	24b\LL	.
24A#X/	24cc#\	.
24B/JJ	24b\JJ	.
8c#/	8a/	.
=231	=231	=231
.	(16qqaa/LL	.
.	32qqbb/L	.
.	32qqccc#/JJJ	.
16dd/ 16f#/ 16A/	16ddd\)	.
16r	16r	.
16f#/ 16A/	16aa\ 16dd\	.
16r	16r	.
8g/ 8G/	(8bb\ 8dd\	.
!!LO:LB:g=original
=232	=232	=232
16.d/LL	16.aa\LL)	.
32e/K	32gg\K	.
16.f#/	16.ff#\	.
32g/JK	32ee\JK	.
8g#X/J	8dd^\J	.
=233	=233	=233
16a/	24cc#\LL	.
.	24dd\	.
16r	.	.
.	24ee\JJ	.
8gn/L 8A/	8a/L	.
8g/J 8A/	16b/L	.
.	16cc#/JJ	.
=234	=234	=234
!LO:TX:t=1ma	!	!
*>Ź1	*	*
16f#/ 16A/	(32ee\KLL	.
.	16dd\JJ)	.
16r	.	.
.	32r	.
4f#/ 4A/	16dd\LL 16f#\	.
.	16dd\ 16f#\	.
.	16dd\ 16f#\	.
.	16dd\JJ 16f#\	.
=235:|!	=235:|!	=235:|!
!LO:TX:t=2	!	!
*>Ź2	*	*
!	!LO:TX:t=P:problem=mixed beam	!
!	!LO:TX:b:t=Coda	!
16.d/LL	16.dd\LL	.
32f#/JJk	32A/JJk	pp
8d/L	4d/	.
8A/J	.	.
=236	=236	=236
*rep	*	*
16.d/LL	16.d/LL	.
32f#/JJk	32A/JJk	.
8d/L	4d/	.
!LO:TX:b:t=V&colon; S&colon;	!	!
8A/J	.	.
*Xrep	*	*
!!LO:PB:g=original
=237	=237	=237
*>Ż	*	*
8qd/	(8qf#/	.
16.c#/LL	16.e/LL)	.
32B#X/JK	32d#X/JK|	.
8c#/	8e'/	.
8c#/J	8e'/J	.
=238	=238	=238
24d/LL	24f#/LL	.
24g/	24b/	.
24f#/JJ	24a/JJ	.
4d/	4f#/	.
=239	=239	=239
16.d/LL	16.d/LL	.
32f#/JJk	32A/JJk	.
4d/	4d/	.
=240	=240	=240
*rep	*rep	*
16.d/LL	16.d/LL	.
32f#/JJk	32A/JJk	.
4d/	4d/	.
*Xrep	*Xrep	*
=241	=241	=241
8qd/	(8qf#/	.
16.c#/LL	16.e/LL)	.
32B#X/JJk	32d#X/JJk|	.
8c#/L	8e'/L	.
8c#/J	8e'/J	.
!!LO:LB:g=original
=242	=242	=242
16d/LL	16.d/LL	.
16f#/JJ	.	.
.	32f#/JJk	.
16d/LL	4d/	.
16a/	.	.
16d/	.	.
16a/JJ	.	.
=243	=243	=243
8qd/	8qf#/	.
16.c#/LL	16.e/LL	.
32B#X/JJk	32d#X/JJk	.
4c#/	4e/	.
=244	=244	=244
8qe/	8qa/	.
16.d/LL	16.f#/LL	.
32c#/JJk	32e/JJk	.
4d/	4f#/	.
=245	=245	=245
16.f#/LL	(16.a/LL	.
32e/JJk	32g/JJk)	.
8c#/L	8e/L	.
8c#/J	8e/J	.
=246	=246	=246
(16.g/LL	(16.b/LL	.
32f#/JJk)	32a/JJk)	.
4d/	4f#/	.
!!LO:LB:g=original
=247	=247	=247
(8qd/	(8qf#/	.
16.c#/LL)	16.e/LL)	.
32B#X/JJk	32d#X/JJk|	.
8c#/L	8e'/L	.
8c#/J	8e'/J	.
=248	=248	=248
(8qe/	(8qg/	.
16.d/LL)	16f#/LL)	.
.	16e'/JJ	.
32c#/JJk|	.	.
8d/L	8f#'/L	.
8d/J	8f#'/J	.
=249	=249	=249
16.f#/LL	16.a/LL	.
32e/JJk	32g/JJk	.
8c#/L	8e/L	.
8c#/J	8e/J	.
=250	=250	=250
16.d/LL	16.d/LL	.
32A/JJk	32f#/JJk	.
4d/	4d/	.
=251	=251	=251
16d/LL	16.dd\LL	<
16f#/JJ	.	.
.	32a\JJk	.
16d/LL	4dd\ 4f#\	.
16a/	.	.
16d/	.	.
16a/JJ	.	.
!!LO:LB:g=original
=252	=252	=252
16d/LL	16.dd/LL 16.f#/	.
16f#/JJ	.	.
.	32a/JJk	.
16d/LL	4dd/ 4f#/	.
16a/	.	.
16d/	.	.
16a/JJ	.	.
=253	=253	=253
8qdd/	8qff#/	.
16.cc#\LL	16.ee\LL	.
32b#X\JK	32dd#X\JK	.
8cc#\	8ee\	.
8cc#\J	8ee\J	.
=254	=254	=254
24dd\LL	24ff#\LL|	.
24gg\	(24bb\	.
24ff#\JJ	24aa\JJ)	.
4dd\	4ff#\	.
=255	=255	=255
16d/LL	16.dd/LL 16.f#/	.
16f#/JJ	.	.
.	32a/JJk	.
16d/LL	4dd/ 4f#/	.
16a/	.	.
16d/	.	.
16a/JJ	.	.
=256	=256	=256
*rep	*rep	*
16d/LL	16.dd/LL 16.f#/	.
16f#/JJ	.	.
.	32a/JJk	.
16d/LL	4dd/ 4f#/	.
16a/	.	.
16d/	.	.
16a/JJ	.	.
*Xrep	*Xrep	*
!!LO:LB:g=original
=257	=257	=257
8qdd/	8qff#/	.
16.cc#\LL	16.ee\LL	.
32b#X\JK	32dd#X\JK	.
8cc#\	8ee\	.
8cc#\J	8ee\J	.
=258	=258	=258
16.dd\LL	16.dd\LL	.
32a\JJk	32ff#\JJk	.
4dd\	4dd\	.
=259	=259	=259
(8qdd/	(8qff#/	.
16.cc#\LL)	16.ee\LL)	.
32b#X\JJk|	32dd#X\JJk|	.
4cc#\|	4ee\ 4a'\	.
=260	=260	=260
(8qee/	(8qgg/	.
16.dd\LL)	16.ff#\LL)	.
32cc#\JJk|	32ee\JJk|	.
4dd\|	4ff#\ 4a'\	.
=261	=261	=261
(16.ff#\LL	(16.aa\LL	.
32ee\JJk)	32gg\JJk)	.
8cc#'\L	8ee\L 8a'\	.
8cc#'\J	8ee\J 8a'\	.
!!LO:PB:g=original
=262	=262	=262
16.gg\LL	(16.bb\LL	.
32ff#\JJk	32aa\JJk)	.
4dd\	4ff#\	.
=263	=263	=263
(8qdd/	(8qff#/	.
16.cc#\LL)	16.ee\LL)	.
32b#X\JJk|	32dd#X\JJk|	.
8cc#'\L	8ee'\L	.
8cc#'\J	8ee\J 8a'\	.
=264	=264	=264
8qee/	8qgg/	.
16.dd\LL	16.ff#\LL	.
32cc#\JJk	32ee\JJk	.
8dd\L	8ff#\L 8a\	.
8dd\J	8ff#\J 8a\	.
=265	=265	=265
16.ff#\LL	(16.aa\LL	.
32ee\JJk	32gg\JJk)	.
8cc#\L	8ee\L 8a'\	.
8cc#\J	8ee\J 8a'\	f
=266	=266	=266
*Xtuplet	*	*
24dd/LL 24d/	24dd'\LL	.
24c#/	24cc#X'\	.
24d/JJ	24dd'\JJ	.
24e/LL	24ee'\LL	.
24f#/	24ff#'\	.
24g/JJ	24gg'\JJ	.
24a/LL	24aa'\LL	.
24b/	24bb'\	.
24cc#/JJ	24ccc#'\JJ	.
!!LO:LB:g=original
=267	=267	=267
16dd\	16ddd\ 16dd\	.
16r	16r	.
16ff#\ 16a\	16aa\ 16dd\	.
16r	16r	.
16gg\ 16b\	16bb\ 16dd\	.
16r	16r	.
=268	=268	=268
16ff#\ 16a\	16aa\ 16dd\	.
16r	16r	.
16gg\ 16b\	16bb\ 16dd\	.
16r	16r	.
16ff#\ 16a\	16aa\ 16dd\	.
16r	16r	.
=269	=269	=269
*>Ż1	*	*
16.gg\LL 16.b-X\	16.ccc#\LL 16.ee\	.
32gg\JJk 32b-\	32ccc#\JJk 32ee\	.
8gg\L 8b-\	8ccc#\L 8ee\	.
8gg\J 8a\	8ccc#\J 8ee\	.
=270:|!	=270:|!	=270:|!
*>Ż2	*	*
16.ff#/LL 16.a/ 16.d/	16ddd\LL 16ff#\	.
.	16ddd\ 16ff#\	.
32f#/K	.	.
16.g/	16ddd\ 16ff#\	.
.	16ddd\ 16ff#\	.
32a/K	.	.
16.b/	16ddd\ 16ff#\	.
.	16ddd\JJ 16ff#\	.
32cc#/JJk	.	.
!!LO:LB:g=original
=271!|:	=271!|:	=271!|:
*>Q	*	*
*	*tremolo	*
16.dd\LL	16ddd\LL 16ff#\	ff
.	16ddd\ 16ff#\	.
32ee\JJk	.	.
8ff#\L	16ddd\ 16ff#\	.
.	16ddd\ 16ff#\	.
8cc#\J	16ddd\ 16ff#\	.
.	16ddd\JJ 16ff#\	.
=272	=272	=272
8dd/L	16ddd\LL 16ff#\	.
.	16ddd\ 16ff#\	.
8a#X/	16ddd\ 16ff#\	.
.	16ddd\ 16ff#\	.
8b/J	16ddd\ 16ff#\	.
.	16ddd\JJ 16ff#\	.
=273	=273	=273
16.g/LL	16bb\LL 16gg\	.
.	16bb\ 16gg\	.
32f#/JJk	.	.
8e/L	16bb\ 16gg\	.
.	16bb\ 16gg\	.
8g/J	16bb\ 16gg\	.
.	16bb\JJ 16gg\	.
=274	=274	=274
(8b-X/L	16ccc#\LL 16ee\	.
.	16ccc#\ 16ee\	.
8a/)	16ccc#\ 16ee\	.
.	16ccc#\ 16ee\	.
8A/J	16ccc#\ 16ee\	.
.	16ccc#\JJ 16ee\	.
*	*Xtremolo	*
=275:|!	=275:|!	=275:|!
*>Ś	*	*
16.ff#\LL 16.a\ 16.d\	16.ddd\LL 16.ff#\ 16.d\	.
32aa\JJk 32a\	32aa\JJk 32ff#\	.
8aa\L 8a\	8aa\L 8ff#\	.
8gg\J 8a\	8ccc#\J 8ee\	.
=276	=276	=276
*rep	*rep	*
16.ff#\LL 16.a\ 16.d\	16.ddd\LL 16.ff#\ 16.d\	.
32aa\JJk 32a\	32aa\JJk 32ff#\	.
8aa\L 8a\	8aa\L 8ff#\	.
8gg\J 8a\	8ccc#\J 8ee\	.
*Xrep	*Xrep	*
!!LO:LB:g=original
=277	=277	=277
16.ff#\LL 16.a\ 16.d\	16.ddd\LL 16.ff#\ 16.d\	.
32aa\JJk 32a\	32aa\JJk 32ff#\	.
8aa\L 8a\	8aa\L 8ff#\	.
8gg\J 8a\	8ccc#\J 8ee\	.
=278	=278	=278
*rep	*rep	*
16.ff#\LL 16.a\ 16.d\	16.ddd\LL 16.ff#\ 16.d\	.
32aa\JJk 32a\	32aa\JJk 32ff#\	.
8aa\L 8a\	8aa\L 8ff#\	.
8gg\J 8a\	8ccc#\J 8ee\	.
*Xrep	*Xrep	*
=279	=279	=279
*tremolo	*tremolo	*
32ff#\LLL 32a\	32ddd\LLL 32ff#\	.
32ff#\ 32a\	32ddd\ 32ff#\	.
32ff#\ 32a\	32ddd\ 32ff#\	.
32ff#\ 32a\	32ddd\ 32ff#\	.
32ff#\ 32a\	32ddd\ 32ff#\	.
32ff#\ 32a\	32ddd\ 32ff#\	.
32ff#\ 32a\	32ddd\ 32ff#\	.
32ff#\ 32a\	32ddd\ 32ff#\	.
32ff#\ 32a\	32ddd\ 32ff#\	.
32ff#\ 32a\	32ddd\ 32ff#\	.
32ff#\ 32a\	32ddd\ 32ff#\	.
32ff#\JJJ 32a\	32ddd\JJJ 32ff#\	.
=280	=280	=280
32ff#\LLL 32a\	32ddd\LLL 32ff#\	.
32ff#\ 32a\	32ddd\ 32ff#\	.
32ff#\ 32a\	32ddd\ 32ff#\	.
32ff#\ 32a\	32ddd\ 32ff#\	.
32ff#\ 32a\	32ddd\ 32ff#\	.
32ff#\ 32a\	32ddd\ 32ff#\	.
32ff#\ 32a\	32ddd\ 32ff#\	.
32ff#\ 32a\	32ddd\ 32ff#\	.
32ff#\ 32a\	32ddd\ 32ff#\	.
32ff#\ 32a\	32ddd\ 32ff#\	.
32ff#\ 32a\	32ddd\ 32ff#\	.
32ff#\JJJ 32a\	32ddd\JJJ 32ff#\	.
=281	=281	=281
*rep	*	*
32ff#\LLL 32a\	32ddd\LLL 32ff#\	.
32ff#\ 32a\	32ddd\ 32ff#\	.
32ff#\ 32a\	32ddd\ 32ff#\	.
32ff#\ 32a\	32ddd\ 32ff#\	.
32ff#\ 32a\	32ddd\ 32ff#\	.
32ff#\ 32a\	32ddd\ 32ff#\	.
32ff#\ 32a\	32ddd\ 32ff#\	.
32ff#\ 32a\	32ddd\ 32ff#\	.
32ff#\ 32a\	32ddd\ 32ff#\	.
32ff#\ 32a\	32ddd\ 32ff#\	.
32ff#\ 32a\	32ddd\ 32ff#\	.
32ff#\JJJ 32a\	32ddd\JJJ 32ff#\	.
*Xrep	*	*
=282	=282	=282
*rep	*	*
32ff#\LLL 32a\	32ddd\LLL 32ff#\	.
32ff#\ 32a\	32ddd\ 32ff#\	.
32ff#\ 32a\	32ddd\ 32ff#\	.
32ff#\ 32a\	32ddd\ 32ff#\	.
32ff#\ 32a\	32ddd\ 32ff#\	.
32ff#\ 32a\	32ddd\ 32ff#\	.
32ff#\ 32a\	32ddd\ 32ff#\	.
32ff#\ 32a\	32ddd\ 32ff#\	.
32ff#\ 32a\	32ddd\ 32ff#\	.
32ff#\ 32a\	32ddd\ 32ff#\	.
32ff#\ 32a\	32ddd\ 32ff#\	.
32ff#\JJJ 32a\	32ddd\JJJ 32ff#\	.
*Xrep	*	*
*Xtremolo	*Xtremolo	*
=283	=283	=283
8ff#\ 8a\ 8d\	8ddd\ 8ff#\	.
8r	8r	.
8r	8r	.
!!LO:LB:g=original
=284	=284	=284
8r	8r	.
32r	32r	.
(32d/LLL	(>32dd\LLL	.
32e/	32ee\	.
32f#/	32ff#\	.
32g/	32gg\	.
32a/	32aa\	.
32b/	32bb\	.
32cc#/JJJ	32ccc#\JJJ	.
=285	=285	=285
*^	*^	*
!LO:TX:t=P:problem=mixed beam	!	!LO:TX:t=P:problem=mixed beam	!	!
8dd\L)	8ryy	8ddd\L)	8ryy	.
8d/	8d\L	8d/	8d\L	.
8d/J	8d\J	8d/J	8d\J	.
=286	=286	=286	=286	=286
8d/L	8d\L	8d/L	8d\L	.
8d/	8d\	8d/	8d\	.
8d/J	8d\J	8d/J	8d\J	.
=287	=287	=287	=287	=287
4.d;/	4.d\	4.d;/	4.d\	.
*v	*v	*	*	*
*	*v	*v	*
==	==	==
*-	*-	*-
!!!system-decoration: [(s1,s2)]
!!!RDF**kern: > = above
!!!RDF**kern: < = below
!!!RDF**kern: | = vertical stroke
!!!EED: Leszek Kubiak
!!!EEV: 2021-06-30
!!!ENC: Krzysztof Stępień
!!!END: 2021-06-08
